!!!id: EG066
!!!page: 180-181
!!!COM: Anonymous
!!!LYR: Anonymous
!!!PTL@@FR: Chansons Populaires du Canada
!!!OTL@@FR: Je le mène bien mon dévidoi'!
!!!PUB: G. E. Desbarats
!!!YEM:
!!!PDT: 1865
!!!SMA:
!!!OMD:
!!!AGN-Laforte:
!!!AGN-type:
!!!AGN-rime:
**kern	**text	**text	**text	**text	**text	**text	**text	**text	**text
*clefG2	*	*	*	*	*	*	*	*	*
*k[]	*	*	*	*	*	*	*	*	*
*a:	*	*	*	*	*	*	*	*	*
*M2/4	*	*	*	*	*	*	*	*	*
*	*v:1	*v:2	*v:3	*v:4	*v:5	*v:6	*v:7	*v:8	*v:9
*	*pline:1	*pline:5	*pline:9	*pline:13	*pline:17	*pline:21	*pline:25	*pline:29	*pline:33
!LO:TX:a:i:t=Voix seule, reprise en chœur.	!	!	!	!	!	!	!	!	!
8e	Mon	En-	Le	Il	Ma	Nen-	Car	Fil-	'Vou-
8a	pèr'	-cor	ma-	de-	mi-	-ni,	si	-le	-lez-
8b/	n'a-	sur	-ri-	-vint	gnon-	Mon-	mon	bat-	vous
=1	=1	=1	=1	=1	=1	=1	=1	=1	=1
8cc	-vait	la	-nier	a-	-nette	-sieur,	pa-	-tue	bell'
8a	fil-	mer	qui	-mou-	em-	je	-pa	ce	qui
8b/	-le	il	m'y	-reux	-bras-	n'o-	le	se-	lui
8a	que	m'en-	me-	de	-sez-	-se-	sa-	-rait	di-
=2	=2	=2	=2	=2	=2	=2	=2	=2	=2
8aL	moi,	-voie.	-nait	moi.	moi.	-rais.	-vait,	moi.	-rait?
8gJ	.	.	.	.	.	.	.	.	.
*	*pline:2	*pline:6	*pline:10	*pline:14	*pline:18	*pline:22	*pline:26	*pline:30	*pline:34
16e	Je	Je	Je	Je	Je	Je	Je	Je	Je
16a	le	le	le	le	le	le	le	le	le
16a	mè-	mè-	mè-	mè-	mè-	mè-	mè-	mè-	mè-
16a	-ne	-ne	-ne	-ne	-ne	-ne	-ne	-ne	-ne
!!LO:PB:g=original
=3	=3	=3	=3	=3	=3	=3	=3	=3	=3
8cc	bien	bien	bien	bien	bien	bien	bien	bien	bien
8a	mon	mon	mon	mon	mon	mon	mon	mon	mon
8b/	dé-	dé-	dé-	dé-	dé-	dé-	dé-	dé-	dé-
8cc	-vi-	-vi-	-vi-	-vi-	-vi-	-vi-	-vi-	-vi-	-vi-
=4	=4	=4	=4	=4	=4	=4	=4	=4	=4
8a	-doi'!	-doi'!	-doi'!	-doi'!	-doi'!	-doi'!	-doi'!	-doi'!	-doi'!
=:|!;	=:|!;	=:|!;	=:|!;	=:|!;	=:|!;	=:|!;	=:|!;	=:|!;	=:|!;
*	*pline:3	*pline:7	*pline:11	*pline:15	*pline:19	*pline:23	*pline:27	*pline:31	*pline:35
!LO:TX:a:i:t=Voix seule.	!	!	!	!	!	!	!	!	!
8e	En-	Le	Il	Ma	Nen-	Car	Fil-	'Vou-	Ce
8a	-cor	ma-	de-	mi-	-ni,	si	-le	-lez-	se-
8b/	sur	-ri-	-vint	-gnon-	Mon-	mon	bat-	vous	-rait
=5	=5	=5	=5	=5	=5	=5	=5	=5	=5
8cc	la	-nier	a-	-nette	-sieur,	pa-	-tue	bell'	les
8cc	mer	qui	-mou-	em-	je	-pa	ce	qui	oi-
8ee	il	m'y	-reux	-bras-	n'o-	le	se-	lui	-seaux
8cc	m'en	me-	de	-sez-	-se-	sa-	-rait	di-	des
!!LO:PB:g=original
=6	=6	=6	=6	=6	=6	=6	=6	=6	=6
4b	voi',	-nait	moi.	moi.	-rais.	-vait,	moi.	-rait?	bois.
*	*pline:4	*pline:8	*pline:12	*pline:16	*pline:20	*pline:24	*pline:28	*pline:32	*pline:36
8cc	Moi-	Moi-	Moi-	Moi-	Moi-	Moi-	Moi-	Moi-	Moi-
8a	z-et	z-et	z-et	z-et	z-et	z-et	z-et	z-et	z-et
=7	=7	=7	=7	=7	=7	=7	=7	=7	=7
8aL	moi!	moi!	moi!	moi!	moi!	moi!	moi!	moi!	moi!
8gJ	.	.	.	.	.	.	.	.	.
=!|:	=!|:	=!|:	=!|:	=!|:	=!|:	=!|:	=!|:	=!|:	=!|:
*	*italic	*	*	*	*	*	*	*	*
*	*pline:RH1a	*	*	*	*	*	*	*	*
!LO:TX:a:i:t=Voix seule, reprise en chœur.	!	!	!	!	!	!	!	!	!
16e	Je	.	.	.	.	.	.	.	.
16a	le	.	.	.	.	.	.	.	.
16a	mè-	.	.	.	.	.	.	.	.
16a	-ne	.	.	.	.	.	.	.	.
=8	=8	=8	=8	=8	=8	=8	=8	=8	=8
8cc	bien;	.	.	.	.	.	.	.	.
*	*pline:RH1b	*	*	*	*	*	*	*	*
16a	Je	.	.	.	.	.	.	.	.
16a	le	.	.	.	.	.	.	.	.
8b/	mè-	.	.	.	.	.	.	.	.
8a\	-ne	.	.	.	.	.	.	.	.
!!LO:PB:g=original
=9	=9	=9	=9	=9	=9	=9	=9	=9	=9
8aL	droit!	.	.	.	.	.	.	.	.
8gJ	.	.	.	.	.	.	.	.	.
*	*pline:RH2a	*	*	*	*	*	*	*	*
16e	Je	.	.	.	.	.	.	.	.
16a	le	.	.	.	.	.	.	.	.
16a	mè-	.	.	.	.	.	.	.	.
16a	-ne	.	.	.	.	.	.	.	.
=10	=10	=10	=10	=10	=10	=10	=10	=10	=10
8cc	bien	.	.	.	.	.	.	.	.
*	*pline:RH2b	*	*	*	*	*	*	*	*
8a	Mon	.	.	.	.	.	.	.	.
8b	dé-	.	.	.	.	.	.	.	.
8cc	-vi-	.	.	.	.	.	.	.	.
=11	=11	=11	=11	=11	=11	=11	=11	=11	=11
8a	-doi'!	.	.	.	.	.	.	.	.
8r	.	.	.	.	.	.	.	.	.
=:|!	=:|!	=:|!	=:|!	=:|!	=:|!	=:|!	=:|!	=:|!	=:|!
8r	.	.	.	.	.	.	.	.	.
*	*Xitalic	*	*	*	*	*	*	*	*
==	==	==	==	==	==	==	==	==	==
*-	*-	*-	*-	*-	*-	*-	*-	*-	*-
!!!RWG: Upper voice eighth note on 'cc' on last beat of m.8
!!!RNB: Final eighth rest flipped backward in original
!!!EED: Samuel Boone
